Suru++-Ubuntu/apps/symbolic/google-chrome-symbolic.svg

<svg width="16" height="16" style="enable-background:new" version="1.1" xmlns="http://www.w3.org/2000/svg">
 <g transform="translate(-64,-180)">
  <path d="m72 180a8 8 0 0 0-6.304688 3.07812l2.384766 4.13086a4 4 0 0 1 3.919922-3.20898h6.919922a8 8 0 0 0-6.919922-4zm-6.921875 4.00977a8 8 0 0 0-1.078125 3.99023 8 8 0 0 0 6.894531 7.91406l2.384766-4.1289a4 4 0 0 1-1.279297 0.21484 4 4 0 0 1-3.458984-2.00195l-0.0059 2e-3 -3.457031-5.99023zm6.921875 0.99023a3 3 0 0 0-3 3 3 3 0 0 0 3 3 3 3 0 0 0 3-3 3 3 0 0 0-3-3zm2.638672 0a4 4 0 0 1 1.361328 3 4 4 0 0 1-0.539062 1.99805l0.0039 2e-3 -3.462891 6a8 8 0 0 0 7.998053-8.00005 8 8 0 0 0-0.589844-3h-4.771484z" style="fill:#808080"/>
 </g>
</svg>

<svg xmlns="http://www.w3.org/2000/svg" style="enable-background:new" width="16" height="16" version="1.1">
 <g transform="translate(-64,-180)">
  <path d="m 72,180 a 8,8 0 0 0 -6.304688,3.07812 l 2.384766,4.13086 A 4,4 0 0 1 72,184 l 6.919922,0 A 8,8 0 0 0 72,180 Z m -6.921875,4.00977 A 8,8 0 0 0 64,188 a 8,8 0 0 0 6.894531,7.91406 l 2.384766,-4.1289 A 4,4 0 0 1 72,192 4,4 0 0 1 68.541016,189.99805 l -0.0059,0.002 -3.457031,-5.99023 z M 72,185 a 3,3 0 0 0 -3,3 3,3 0 0 0 3,3 3,3 0 0 0 3,-3 3,3 0 0 0 -3,-3 z m 2.638672,0 A 4,4 0 0 1 76,188 a 4,4 0 0 1 -0.539062,1.99805 l 0.0039,0.002 -3.462891,6 A 8,8 0 0 0 80,188 8,8 0 0 0 79.410156,185 l -4.771484,0 z" style="fill:#808080"/>
 </g>
</svg>
